X:1
T: Gallaton
C:
R:Strathspey
Q: 128
K:G
M:4/4
L:1/16
G,G3 g3f ((3e2d2c2) ((3B2A2G2) |EA3 A3G ((3F2E2D2) ((3C2B2,2A,) |G,G3 g3f ((3e2d2c2) ((3B2A2G2) |((3A2B2c2) ((3d2e2f2) gG3 G4|
G,G3 g3f ((3e2d2c2) ((3B2A2G2) |EA3 A3G ((3F2E2D2) ((3C2B2,2A,) |G,G3 g3f ((3e2d2c2) ((3B2A2G2) |((3A2B2c2) ((3d2e2f2) gG3 G2c2|
Be3 g3f ((3e2b2a2) ((3g2f2e2) |d3f A3d F3A D4|Be3 g3f ((3e2b2a2) ((3g2f2e2) |((3f2g2a2) ((3a2g2f2) ge3 e3B|
Be3 g3f ((3e2b2a2) ((3g2f2e2) |((3d2f2d2) ((3A2d2A2) ((3F2A2F2) ((3D2E2F2) |G4 g3f ((3e2d2c2) ((3B2A2G2) |FED2 CB,A,2 B,2G,2 G,4:|
